X:129
T:Old Hag You Have Killed Me
K:Dmix
R:Jig
M:6/8
L:1/8
FED c2A | ded cAG | A3 ABG | ABG A2G |
FED c2A | ded cAF | G3 GBA | GBA G2G :|
|: fef gfg | afd cAG | A3 ABG | ABG A2e |
fef gfg | afd cAF | G3 GBA |[1 GBA G2e :|[2 GBA G2G |]

